X:1
T:9 Lieder und Gesänge, Op.32
T:Du sprichst, dass ich mich täuschte
T:6. Du sprichst, dass ich mich täuschte
T:Johannes Brahms
T:August von Platen
T:9 Lieder und Gesänge, Op.32
T:Creative Commons copyright waiver (CC0 1.0 Universal) 
T:Creative Commons copyright waiver (CC0 1.0 Universal) 
T:Creative Commons copyright waiver (CC0 1.0 Universal) 
C:Johannes Brahms
Z:August von Platen
Z:Creative Commons copyright waiver (CC0 1.0 Universal)
Z:
%%score ( 1 2 ) { ( 3 5 ) | ( 4 6 ) }
L:1/8
Q:1/4=75
M:4/4
K:Eb
V:1 treble nm="Singstimme\nVoice"
V:2 treble 
V:3 treble nm="Pianoforte"
V:5 treble 
V:4 bass 
V:6 bass 
V:1
"^Andante con moto" z8 | z8 | z8 | z4 z2!p! G2 | G3 A E2 F2 | G2 G2 z2 d2 | f3 c c2 d2 | %7
w: |||Du|sprichst, dass ich mich|täusch- te, be-|schworst es hoch und|
 =B4 z2 e2 | d2 c2 _B2 G2 | B2 A2 z2 f2 | e2 _d2 c3 =d | d2 a2 g2 f2 |!>(! e4 =B4!>)! | c4 z4 | %14
w: hehr, ich|weiss ja doch, du|lieb- test, al-|lein du liebst nicht|mehr, du liebst, du|liebst nicht|mehr!|
 z8 | z8 | z4 z2!mf! G2 | A3 B G2 G2 | c2 F2 z2 z B |!<(! _d3 e c2 c2!<)! |!f! f4 z2!p! e2 | %21
w: ||Dein|schö- nes Au- ge|brann- te, die|Küs- se brann- ten|sehr, du|
 =d2 c2 B2 G2 | B2 A2 z2 f2 | e2 _d2 c3 =d | d2!f! a2 g2 f2 | e4 =B4 | c4 z4 | z8 | z8 | %29
w: lieb- test mich, be-|kenn es, al-|lein du liebst nicht|mehr, du liebst, du|liebst nicht|mehr!|||
 z4 z2!p! G2 | G3 A G2 F2 | =B2 B2 z2 c2 | _d3 d c2 c2 | =B4 z2 c2 | _B2 A2 G2 =E2 | %35
w: Ich|zäh- le nicht auf|neu- e, ge-|treu- e Wie- der-|kehr. Ge-|steh nur, dass du|
 G2 F2 z2!mp! f2 | e2 _d2 c2 =A2 | (e2 _d2) z2!mf! f2 | (=e4 f2) c2 | (=B4 c2) G2 | =E4 F4 | %41
w: lieb- test, und|lie- be mich nicht|mehr, _ und|lie- * be,|lie- * be|mich nicht|
!<(! G8-!<)! | G2 z2 !fermata!z4 |] %43
w: mehr!|_|
V:2
 x8 | x8 | x8 | x8 | x8 | x8 | x8 | x8 | x8 | x8 | x8 | x8 | x8 | x8 | x8 | x8 | x8 | x8 | x8 | %19
 x8 | x8 | x8 | x8 | x8 | x8 | x8 | x8 | x8 | x8 | x8 | x8 | x8 | x8 | x8 | x8 | x8 | x8 | x8 | %38
 x8 | x8 | x8 | x4-!>(! x4!>)! | x2 x6 |] %43
V:3
 ([eg]3 [fa] [ce]2 [Af]2) | ([Bd]3 [ce] [GB]2 [Ec]2) | (A3 B G4) | (A3 B G4) | %4
[K:bass] z [E,C]- [E,CE]2 z [A,C]- [A,CA]2 | z [D,G,]- [D,G,D]2 z [G,D]- [G,DG]2 | %6
 z [C,F,]- [C,F,C]2 z [F,C]- [F,CF]2 | z [D,=B,]- [D,B,D]2 z2[K:treble] ([EG]2 | %8
 [DF]2 [CE]2 [_B,D]2 [G,=E]2) | z2 ([Ac]2 [GB]2 [FAf]2 | [Ge]2 [B_db]2 [Aca]2 [F=df]2) | %11
 z ([fd'][ec'][d=b] [ec'][_Bg][ca][Fd]) | [Beb]2!<(! ([Be]2!<)!!>(! [fa]2 [eg]!>)![df]) | %13
 ([eg]3 [fa] [ce]2 [Af]2) | ([Bd]3 [ce] [GB]2 [Ec]2) | (A3 B G4) | (A3 B G4) | (A3 B G4) | %18
 [EF]4 [DF]2 z2 | (BABE) (3(AGA GF) | A4 G2 (G2 | [FA]2 [EG]2 [DF]2 [_DG]2) | %22
 z2 ([Ac]2 [GB]2 [Af]2 | e2 [B_db]2 [Aca]2 [F=df]2) | z ([fd'][ec'][d=b] [ec'][_Bg][ca][Fd]) | %25
 [Beb]2 ([Be]2 [fa]2 [eg][df]) | ([eg]3 [fa] [ce]2 [Af]2) | ([Bd]3 [ce] [GB]2 [Ec]2) | (A3 B G4) | %29
 (A3 B G4) | ([_D=EG]4 [CFA]4 | [=DA=B]4 [CGc]4) | ([=EG_d]4 [FAc]4 | [=DA=B]4 [Cc]4) | %34
 ([_D_B]2 [CA]2 [B,G]2 [G,=E]2) | z2!<(! ([Ac]2!<)!!>(! [G=e]2!>)! [Ff]2) | %36
 ([_Ge]2 [F_d]2 [_Ec]2 [C=A]2) | z2!<(! ([_df]2!<)!!>(! [c=a]2!>)! [Bb]2) | %38
 z ([B_d][Ac][GB] [Ac][=EG][FA]C) | z ([FA][=EG][DF] [EG][=B,D][CE]G,) |[K:bass] _B,3 C (A,3 _B,) | %41
 G,4 G,4 | !fermata!G,8 |] %43
V:4
!p! z C,,- [C,,C,]2 z C,,- [C,,C,]2 | z C,,- [C,,C,]2 z C,,- [C,,C,]2 | %2
 z C,,- [C,,C,]2 z C,,- [C,,C,]2 | z C,,- [C,,C,]2 z C,,- [C,,C,]2 | %4
 z!p! [C,,E,,]- [C,,E,,C,]2 z [C,,A,,]- [C,,A,,C,]2 | %5
 z [=B,,,D,,]- [B,,,D,,=B,,]2 z [_B,,,G,,]- [B,,,G,,_B,,]2 | %6
 z [=A,,,C,,]- [A,,,C,,=A,,]2 z [_A,,,F,,]- [A,,,F,,_A,,]2 | %7
 z [G,,,D,,]- [G,,,D,,G,,]2 z (G,,!p![E,G,]G,, |"^espress." [D,F,]G,,[C,E,]G,, [_A,,D,]G,,C,C,,) | %9
 z"^cresc." (C,[A,C]C, [G,B,]C,!<(!A,F,, | G,F,,) ([_DF]F, [CF]F,[A,=D]F,)!<)! | %11
 z!f! (F,,F,E,, E,F,,F,A,,) | (3(G,,B,,E, (3G,B,E) [FA]2 [EG][DF] | %13
!p! z C,,- [C,,C,]2 z C,,- [C,,C,]2 | z C,,- [C,,C,]2 z C,,- [C,,C,]2 | %15
 z C,,- [C,,C,]2 z C,,- [C,,C,]2 | z C,,- [C,,C,]2 z C,,- [C,,C,]2 | %17
 z D,,- [D,,D,]2 z D,,- [D,,D,]2 | (B,=A,G,A,) (3(B,A,B, C_D) | %19
!<(! z G,,- [G,,G,]2 z A,,- [A,,A,]2!<)! |!>(! z B,,- [B,,B,]2 z (B,,!>)![G,B,]B,, | %21
 [F,A,]B,,[E,G,]B,, [D,F,]B,,E,E,,) | z"^cresc." (A,,A,C, CF,FF, | %23
!<(! [EG]F,[_DF]F, [CF]F,[A,=D]!<)!F,) | z!f! (F,,F,E,, E,F,,F,A,,) | %25
!<(! (3(G,,B,,E, (3G,B,E)!<)!!>(! [FA]2 ([EG][DF])!>)! |!p! z C,,- [C,,C,]2 z C,,- [C,,C,]2 | %27
 z C,,- [C,,C,]2 z C,,- [C,,C,]2 | z C,,- [C,,C,]2 z C,,- [C,,C,]2 | %29
 z C,,- [C,,C,]2 z C,,- [C,,C,]2 |!p! (B,A,B,G,)!<(! (3(A,G,A, G,F,) | %31
 (F,E,F,D,) (3(E,D,E, D,C,)!<)! |!>(! (B,,A,,B,,G,,) (3(A,,G,,A,, G,,F,,) | %33
 (F,,E,,F,,D,,) (3(E,,D,,!>)!!p!E,, D,,C,,) |!p! z (C,,C,C,,) z (C,,C,C,,) | %35
 z"^cresc." (C,[A,C]C, [G,B,]C,A,F,,) |!p! z (F,,F,F,,) z (F,,F,F,,) | %37
"^cresc." z (F,[_DF]F, [CE]F,DB,,) | z!f!!>(! (C,,C,C,, C,C,,C,C,,)!>)! | %39
 z!f!!>(! (C,,C,C,, C,C,,C,C,,)!>)! |!mp! z C,,- [C,,C,]2 z!mp!!<(! C,,- [C,,C,]2 | %41
 z C,,- [C,,C,]2 z C,,- [C,,C,]2!<)! |!f! z (C,,,G,,,C,, !fermata![C,,G,,]4) |] %43
V:5
 x8 | x8 | (FEFD) (3(EDE DC) | (FEFD) (3(EDE DC) |[K:bass] x8 | x8 | x8 | x6[K:treble] x2 | x8 | %9
 x8 | x8 | x8 | x4 =B4 | x8 | x8 | (FEFD) (3(EDE DC) | (FEFD) (3(EDE DC) | (FEFB,) (3(EDE DC) | %18
 x8 | _D4 C4 | (E=DCD) (3(EDE GB) | x8 | x8 | x8 | x8 | x4 =B4 | x8 | x8 | (FEFD) (3(EDE DC) | %29
 (FEFD) (3(EDE DC) | x8 | x8 | x8 | x8 | x8 | x8 | x8 | x8 | x8 | x8 | %40
[K:bass] (G,F,G,=E, F,E,F,D,) | (3(=E,D,E, D,C,) (3(E,D,E, D,C,) | %42
 (=E, D,2 E, !fermata!D,2) !fermata!C,2 |] %43
V:6
 x8 | x8 | x8 | x8 | x8 | x8 | x8 | x8 | x8 | x8 | x8 | x8 | x4 [G,=B,]4 | x8 | x8 | x8 | x8 | x8 | %18
 z F,,- [F,,F,]2 z B,,- [B,,F,]2 | x8 | x8 | x8 | x8 | x8 | x8 | x4 [G,=B,]4 | x8 | x8 | x8 | x8 | %30
 C,4 C,4 | C,6 z2 | C,,4 C,,4 | C,,6 z2 | x8 | x8 | x8 | x8 | x8 | x8 | x8 | x8 | x8 |] %43

